!!!OTL: Jaeger und Graserin Es ging ein Maedchen im gruenen Walde grasen,
!!!ARE: Europa, Osteuropa, Ungarn, Kom. Tolna, Bataapati
!!!YOR: 7, S. 227
!!    ????
!!!SCT: Q0154
!!!YEM: Copyright 1995, estate of Helmut Schaffrath.
**kern
*ICvox
*Ivox
!! Mixed meters:  4/4; 3/4
*M4/4
*k[f#c#]
*D:
{8A
8d
8e
=1
4f#
8f#
8f#
8a
8a
8g
8f#
=2
4a
4e
8r}
{8e
8e
8f#
=3
4.g
8a
8b
8b
8a
8g
=4
4a
4f#
8r}
{8a
8a
8dd
=5
*M3/4
4.cc#
8cc#
8b
8b
=6
4.a}
{8f#
8f#
8g
=7
4.a
8b
8g
8a
=8
2f#
8r}
==
!!!AGN: Ballade, Verfuehrung, Verlassen
!!!ONB: ESAC (Essen Associative Code) Database: BALLADE
!!!AMT: irregular
!!!AIN: vox
!!!EED: Helmut Schaffrath
!!!EEV: 1.0
*-
